!!!!SEGMENT: pl-wn--sd-xvi-qu-273--070_gomolka-mikolaj--boze-wiecznej-mocy.krn
!!!cenid: 15xx:275
!!!COM: Gomółka, Mikołaj
!!!COM-rismid: pe30013343
!!!CDT: ~1535->1591/04/30
!!!CNT: Polish
!!!GTL: Melodiae na psalterz polski
!!!OTL: LXX. Boże wiecznej mocy,
!!!ONB: PSALM LXX. Deus in adiutorium meum intende: Domine ad adiuvandum me festina.
!!!PDT: 1580
!!!AGN: Sacred
!!!SMS-siglum: PL-Wn
!!!SMS-shelfmark: SD XVI.Qu.273
!!!SMS-shelfwork: 070 G
!!!NIFC-rismid:
!!!ONB-nifc: Melodiae na psalterz polski
**kern	**text	**kern	**text	**kern	**text	**kern	**text
*part4	*part4	*part3	*part3	*part2	*part2	*part1	*part1
*staff4	*staff4	*staff3	*staff3	*staff2	*staff2	*staff1	*staff1
*clefF3	*	*clefC3	*	*clefC2	*	*clefG2	*
*k[b-B-]	*	*k[b-]	*	*k[b-]	*	*k[b-]	*
*F:	*	*F:	*	*F:	*	*F:	*
*M2/1	*	*M2/1	*	*M2/1	*	*M2/1	*
*met(C|)	*	*met(C|)	*	*met(C|)	*	*met(C|)	*
*I"BASSUS.	*	*I"TENOR.	*	*I"ALTUS.	*	*I"CANTUS.	*
=1-	=1	=1-	=1	=1-	=1	=1-	=1
!LO:TX:t=P:dwa bemole przy kluczu:problem	!	!	!	!	!	!	!
1F\	Bo-	1f\	Bo-	1a\	Bo-	1cc\	Bo-
1C/	że	1e\	-że	2g\	-że	2cc\	-że
.	.	.	.	1g\	wie-	1cc\	wie-
=2-	=2	=2-	=2	=2-	=2	=2-	=2
2C/	wie-	2e\	wie-	.	.	.	.
1F\	-cznéy	1f\	-cznéy	1a	-cznéy	1a/	-cz(néy)
2G\	mo-	2d\	mo-	4g\	mo-	2b-/	mo-
.	.	.	.	4f\	.	.	.
=3-	=3	=3-	=3	=3-	=3	=3-	=3
4A\	-cy,	2c/	-cy,	2e/	-cy,	2cc\	-cy,
4G\	.	.	.	.	.	.	.
4F/	Twéy	2c/	Twéy	4a\	Twéy	2.ff\	Twéy
4E/	.	.	.	4g\	.	.	.
4D/	żą-	2.d\	żą-	2f\	.	.	.
4C/	.	.	.	.	.	4ee\	.
4BB-/	-dam	.	.	4b-\	żą-	4dd\	żą-
4C/	.	4e\	.	2a\	-dam	4cc\	.
=4-	=4	=4-	=4	=4-	=4	=4-	=4
2D/	po-	2f\	-dam	.	.	4a/	-dam
.	.	.	.	4f\	.	4b-/	.
2E/	-mo-	2e\	po-	2g\	po-	1cc\	po-
2F/	.	1d\	-mo-	2a\	-mo-	.	.
2G\	.	.	.	4g\	.	2b-/	-mo-
.	.	.	.	4f\	.	.	.
*M1/1	*	*M1/1	*	*M1/1	*	*M1/1	*
=5-	=5	=5-	=5	=5-	=5	=5-	=5
1C/	-cy:	1c\	-cy:	1e\	-cy:	1cc\	-cy:
=6-	=6	=6-	=6	=6-	=6	=6-	=6
*M3/1	*	*M3/1	*	*M3/1	*	*M3/1	*
2C/	Chćiéy	2e\	Chćiéy	2c/	Chćiéy	2g/	Chćiéy
2C/	sye	2e\	sye	2c/	sye	2g/	sye
2C/	po-	2e\	po-	2c/	po-	2cc\	po-
4F\	-śpie-	1f\	śpie-	2.c/	-śpie-	2.cc\	-śpie-
4G\	.	.	.	.	.	.	.
4A\	.	.	.	.	.	.	.
4B-\	.	.	.	4d/	.	4b-/	.
2c\	-szyć	2e\	-szyć	2e/	-szyć	4a/	-szyć
.	.	.	.	.	.	4g/	.
=7-	=7	=7-	=7	=7-	=7	=7-	=7
!!LO:PB:g=original
1A\	ku	1c\	ku	2.f\	ku	2.a/	ku
.	.	.	.	4e/	.	4g/	.
4B-\	rá-	2d\	ra-	4d/	rá-	2f/	rá-
4A\	.	.	.	4c/	-tun-	.	.
2G\	-tun-	2e\	-tun-	2B-/	-ku	2g/	-tun-
2F/	-ku	2f\	-ku	2c/	.	2a/	-ku
2c\	me-	2e\	me-	2c/	me-	2g/	me-
=8-	=8	=8-	=8	=8-	=8	=8-	=8
*M2/1	*	*M2/1	*	*M2/1	*	*M2/1	*
*met(C|)	*	*met(C|)	*	*met(C|)	*	*met(C|)	*
1F\	-mu,	1f\	-mu,	1c/	-mu,	1a/	-mu,
2r	.	2r	.	2r	.	2r	.
2c\	Nie	2e\	Nie	2c/	Nie	2g/	Nie
=9-	=9	=9-	=9	=9-	=9	=9-	=9
2F/	dáy	2f\	dáy	2c/	dáy	2a/	dáy
2G\	mię	2d\	mię	2g\	mię	2b/	mię
1C/	w rę-	2.e\	w rę-	2.g\	w rę-	2.cc\	w rę-
.	.	4d\	.	4f\	.	4bny/	.
=10-	=10	=10-	=10	=10-	=10	=10-	=10
2F/	-(ce)	2c/	-ce	4f\	-ce	4a/	.
.	.	.	.	4g\	.	4g/	.
1F\	czło	1c\	czło-	4a\	czło-	2f/	-(ce)
.	.	.	.	4g\	.	.	.
.	.	.	.	4f\	-wie-	2f/	czło-
.	.	.	.	4e/	.	.	.
2G\	-wie-	2B-/	-wie-	4d/	-ko-	2b-y/	-wie-
.	.	.	.	4e\	.	.	.
=11-	=11	=11-	=11	=11-	=11	=11-	=11
2F/	-ko-	2A/	-ko-	4f\	-wi	2a/	-ko-
.	.	.	.	4e\	.	.	.
2BB-/	-wi	2B-/	-wi	2d/	złe-	4g/	-wi
.	.	.	.	.	.	4f/	.
1C/	złe-	1G/	złe-	2.c/	-mu.	4e/	złe-
.	.	.	.	.	.	2f/	.
.	.	.	.	4BnX/	.	4e/	.
=12-	=12	=12-	=12	=12-	=12	=12-	=12
*	*	*000/left	*	*000/left	*	*	*
000F\	-mu.	000F/	-mu.	000A/	.	000f/;	-mu.
==	==	==	==	==	==	==	==
*-	*-	*-	*-	*-	*-	*-	*-
!!!RDF**kern: l = terminal long
!!!system-decoration: s1,s2,s3,s4
!!!ENC: Marta Lawrence
!!!END: 2020-02-13
!!!URL-scan: https://polona.pl/item/melodiae-na-psalterz-polski,Nzk3MTM4ODQ/171 Scan on Polona
!!!IIIF: https://polona.pl/iiif/item/Nzk3MTM4ODQ/manifest.json
